SVG_Azure_All/Azure Arc Kubernetes.svg

<?xml version="1.0" encoding="UTF-8" standalone="no"?>
<!-- Generated by Microsoft Visio, SVG Export Azure Arc Kubernetes.svg Page-1 -->

<svg
   xmlns:dc="http://purl.org/dc/elements/1.1/"
   xmlns:cc="http://creativecommons.org/ns#"
   xmlns:rdf="http://www.w3.org/1999/02/22-rdf-syntax-ns#"
   xmlns:svg="http://www.w3.org/2000/svg"
   xmlns="http://www.w3.org/2000/svg"
   xmlns:xlink="http://www.w3.org/1999/xlink"
   xmlns:sodipodi="http://sodipodi.sourceforge.net/DTD/sodipodi-0.dtd"
   xmlns:inkscape="http://www.inkscape.org/namespaces/inkscape"
   width="0.78475285in"
   height="0.7873354in"
   viewBox="0 0 56.502167 56.688459"
   xml:space="preserve"
   class="st6"
   version="1.1"
   id="svg80"
   sodipodi:docname="Azure Arc Kubernetes.svg"
   style="font-size:12px;overflow:visible;color-interpolation-filters:sRGB;fill:none;fill-rule:evenodd;stroke-linecap:square;stroke-miterlimit:3"
   inkscape:version="0.92.5 (2060ec1f9f, 2020-04-08)"><metadata
   id="metadata84"><rdf:RDF><cc:Work
       rdf:about=""><dc:format>image/svg+xml</dc:format><dc:type
         rdf:resource="http://purl.org/dc/dcmitype/StillImage" /></cc:Work></rdf:RDF></metadata><sodipodi:namedview
   pagecolor="#ffffff"
   bordercolor="#666666"
   borderopacity="1"
   objecttolerance="10"
   gridtolerance="10"
   guidetolerance="10"
   inkscape:pageopacity="0"
   inkscape:pageshadow="2"
   inkscape:window-width="640"
   inkscape:window-height="480"
   id="namedview82"
   showgrid="false"
   inkscape:zoom="1.4193119"
   inkscape:cx="37.665095"
   inkscape:cy="37.781737"
   inkscape:window-x="0"
   inkscape:window-y="0"
   inkscape:window-maximized="0"
   inkscape:current-layer="svg80" />
	<style
   type="text/css"
   id="style2">
	<![CDATA[
		.st1 {fill:#5ea0ef;stroke:none;stroke-linecap:butt;stroke-width:34}
		.st2 {fill:#50e6ff;stroke:none;stroke-linecap:butt;stroke-width:34}
		.st3 {fill:url(#grad0-10);stroke:none;stroke-linecap:butt;stroke-width:34}
		.st4 {fill:none;stroke:none;stroke-linecap:butt;stroke-width:34}
		.st5 {fill:#341a6e;stroke:none;stroke-linecap:butt;stroke-width:34}
		.st6 {fill:none;fill-rule:evenodd;font-size:12px;overflow:visible;stroke-linecap:square;stroke-miterlimit:3}
	]]>
	</style>

	<defs
   id="Patterns_And_Gradients">
		<linearGradient
   id="grad0-10"
   x1="0"
   y1="0"
   x2="1"
   y2="0">
			<stop
   offset="0"
   stop-color="#b77af4"
   stop-opacity="1"
   id="stop4" />
			<stop
   offset="1"
   stop-color="#773adc"
   stop-opacity="1"
   id="stop6" />
		</linearGradient>
	<linearGradient
   inkscape:collect="always"
   xlink:href="#grad0-10"
   id="linearGradient4594"
   x1="0"
   y1="118.458"
   x2="14.475476"
   y2="118.458"
   gradientTransform="scale(1.0659408,0.93813842)"
   gradientUnits="userSpaceOnUse" /><linearGradient
   inkscape:collect="always"
   xlink:href="#grad0-10"
   id="linearGradient4596"
   x1="0"
   y1="118.34279"
   x2="14.461397"
   y2="118.34279"
   gradientTransform="scale(1.064904,0.93905175)"
   gradientUnits="userSpaceOnUse" /><linearGradient
   inkscape:collect="always"
   xlink:href="#grad0-10"
   id="linearGradient4598"
   x1="0"
   y1="118.458"
   x2="14.475476"
   y2="118.458"
   gradientTransform="scale(1.0659408,0.93813842)"
   gradientUnits="userSpaceOnUse" /><linearGradient
   inkscape:collect="always"
   xlink:href="#grad0-10"
   id="linearGradient4600"
   x1="0"
   y1="118.18037"
   x2="14.477362"
   y2="118.18037"
   gradientTransform="scale(1.0637297,0.94008842)"
   gradientUnits="userSpaceOnUse" /><linearGradient
   inkscape:collect="always"
   xlink:href="#grad0-10"
   id="linearGradient4602"
   x1="0"
   y1="118.458"
   x2="14.475476"
   y2="118.458"
   gradientTransform="scale(1.0659408,0.93813842)"
   gradientUnits="userSpaceOnUse" /><linearGradient
   inkscape:collect="always"
   xlink:href="#grad0-10"
   id="linearGradient4604"
   x1="0"
   y1="118.458"
   x2="14.475476"
   y2="118.458"
   gradientTransform="scale(1.0659408,0.93813842)"
   gradientUnits="userSpaceOnUse" /><linearGradient
   inkscape:collect="always"
   xlink:href="#grad0-10"
   id="linearGradient4606"
   x1="0"
   y1="118.458"
   x2="14.475476"
   y2="118.458"
   gradientTransform="scale(1.0659408,0.93813842)"
   gradientUnits="userSpaceOnUse" /></defs>
	<g
   id="g78"
   transform="translate(-34.000407,-34.0025)">
		<title
   id="title10">Page-1</title>
		<g
   id="group8607-1"
   transform="translate(33.9022,-34.0157)">
			<title
   id="title12">Azure Arc Kubernetes</title>
			<g
   id="group8608-2">
				<title
   id="title14">Sheet.8608</title>
				<g
   id="shape8609-3"
   transform="translate(0.0803417)">
					<title
   id="title16">Sheet.8609</title>
					<path
   d="m 56.42,115.46 c -0.52,2.31 -3.41,4.59 -8.62,6.36 a 71.1282,71.1812 0 0 1 -39.93,0.05 c -4.8,-1.7 -7.39,-3.85 -7.8,-6.07 -0.07,-0.39 0,-6.48 0,-6.48 l 56.45,-0.52 c 0,0 -0.03,6.38 -0.1,6.66 z"
   class="st1"
   id="path18"
   inkscape:connector-curvature="0"
   style="fill:#5ea0ef;stroke:none;stroke-width:34;stroke-linecap:butt" />
				</g>
				<g
   id="shape8610-5"
   transform="rotate(-0.575,-543.81868,102.4411)">
					<title
   id="title21">Sheet.8610</title>
					<ellipse
   cx="28.249901"
   cy="114.935"
   rx="28.249901"
   ry="9.7732496"
   class="st2"
   id="ellipse23"
   style="fill:#50e6ff;stroke:none;stroke-width:34;stroke-linecap:butt" />
				</g>
				<g
   id="shape8611-7"
   transform="translate(12.2131,-43.1118)">
					<title
   id="title26">Sheet.8611</title>
					<path
   d="M 7.7,111.13 0,112.55 v 10.51 l 7.7,1.65 7.73,-3.1 v -7.84 z"
   class="st3"
   id="path28"
   inkscape:connector-curvature="0"
   style="fill:url(#linearGradient4594);stroke:none;stroke-width:34;stroke-linecap:butt" />
				</g>
				<g
   id="shape8612-11"
   transform="translate(12.3736,-43.2489)">
					<title
   id="title31">Sheet.8612</title>
					<path
   d="m 7.84,124.68 7.05,-2.84 a 0.544477,0.544883 -180 0 0 0.314727,-0.37795 L 15.2,114.34 a 0.569655,0.57008 -180 0 0 -0.339905,-0.48504 L 7.73,111.43 H 7.41 l -7,1.28 a 0.535035,0.535434 -180 0 0 -0.405998,0.48504 L 0,122.71 a 0.516152,0.516536 -180 0 0 0.405998,0.51339 L 7.49,124.7 a 0.821437,0.822049 -180 0 0 0.349347,-0.0221 z"
   class="st4"
   id="path33"
   inkscape:connector-curvature="0"
   style="fill:none;stroke:none;stroke-width:34;stroke-linecap:butt" />
				</g>
				<g
   id="shape8613-13"
   transform="translate(28.881,-42.9764)">
					<title
   id="title36">Sheet.8613</title>
					<path
   d="M 7.7,111.13 0,112.55 v 10.51 l 7.7,1.65 7.7,-3.13 v -7.81 z"
   class="st3"
   id="path38"
   inkscape:connector-curvature="0"
   style="fill:url(#linearGradient4596);stroke:none;stroke-width:34;stroke-linecap:butt" />
				</g>
				<g
   id="shape8614-16"
   transform="translate(4.32286,-28.6141)">
					<title
   id="title41">Sheet.8614</title>
					<path
   d="M 7.7,111.13 0,112.55 v 10.51 l 7.7,1.65 7.73,-3.1 v -7.84 z"
   class="st3"
   id="path43"
   inkscape:connector-curvature="0"
   style="fill:url(#linearGradient4598);stroke:none;stroke-width:34;stroke-linecap:butt" />
				</g>
				<g
   id="shape8615-19"
   transform="translate(20.9373,-28.696)">
					<title
   id="title46">Sheet.8615</title>
					<path
   d="M 7.7,111.1 0,112.53 v 10.51 l 7.7,1.67 7.7,-3.13 v -7.84 z"
   class="st3"
   id="path48"
   inkscape:connector-curvature="0"
   style="fill:url(#linearGradient4600);stroke:none;stroke-width:34;stroke-linecap:butt" />
				</g>
				<g
   id="shape8616-22"
   transform="translate(37.5486,-28.5889)">
					<title
   id="title51">Sheet.8616</title>
					<path
   d="M 7.7,111.13 0,112.56 v 10.5 l 7.7,1.65 7.73,-3.1 v -7.84 z"
   class="st3"
   id="path53"
   inkscape:connector-curvature="0"
   style="fill:url(#linearGradient4602);stroke:none;stroke-width:34;stroke-linecap:butt" />
				</g>
				<g
   id="shape8617-25"
   transform="translate(12.0242,-13.9558)">
					<title
   id="title56">Sheet.8617</title>
					<path
   d="m 7.7,111.13 -7.7,1.4 v 10.51 l 7.7,1.67 7.73,-3.13 v -7.81 z"
   class="st3"
   id="path58"
   inkscape:connector-curvature="0"
   style="fill:url(#linearGradient4604);stroke:none;stroke-width:34;stroke-linecap:butt" />
				</g>
				<g
   id="shape8618-28"
   transform="translate(12.1753,-14.1449)">
					<title
   id="title61">Sheet.8618</title>
					<path
   d="m 7.85,124.68 7.02,-2.69 a 0.490974,0.491339 -180 0 0 0.314727,-0.48504 L 15.19,114.49 a 0.538183,0.538584 -180 0 0 -0.352494,-0.59213 L 7.73,111.48 a 0.478385,0.478741 -180 0 0 -0.314727,0 L 0.43,112.74 a 0.513005,0.513387 -180 0 0 -0.431176,0.51339 L 0,122.79 a 0.513005,0.513387 -180 0 0 0.40285,0.51339 L 7.48,124.68 a 0.594834,0.595277 -180 0 0 0.361936,0 z"
   class="st4"
   id="path63"
   inkscape:connector-curvature="0"
   style="fill:none;stroke:none;stroke-width:34;stroke-linecap:butt" />
				</g>
				<g
   id="shape8619-30"
   transform="translate(28.6638,-13.8487)">
					<title
   id="title66">Sheet.8619</title>
					<path
   d="M 7.7,111.13 0,112.55 v 10.51 l 7.7,1.65 7.73,-3.1 v -7.84 z"
   class="st3"
   id="path68"
   inkscape:connector-curvature="0"
   style="fill:url(#linearGradient4606);stroke:none;stroke-width:34;stroke-linecap:butt" />
				</g>
				<g
   id="shape8620-33"
   transform="translate(4.29768,-13.8487)">
					<title
   id="title71">Sheet.8620</title>
					<path
   d="M 7.92,83.29 V 93.8 l 7.78,1.65 V 81.97 Z m 3.28,9.7 -2.18,-0.43 v -8.08 l 2.18,-0.35 z m 3.4,0.62 -2.51,-0.4 v -9.24 l 2.51,-0.44 z m 9.98,-10.18 v 10.51 l 7.73,1.64 V 82.11 Z m 3.26,9.7 -2.18,-0.43 v -8.09 l 2.18,-0.35 z m 3.39,0.63 -2.51,-0.41 V 84.1 l 2.51,-0.46 z M 0,97.8 v 10.42 l 7.78,1.64 V 96.39 Z m 3.27,9.72 -2.2,-0.46 V 98.98 L 3.25,98.6 Z m 3.42,0.7 -2.52,-0.41 v -9.35 l 2.52,-0.43 z m 9.95,-10.54 v 10.54 l 7.75,1.64 V 96.39 Z m 3.26,9.73 -2.18,-0.46 v -8.08 l 2.18,-0.38 z m 3.39,0.59 -2.52,-0.4 v -9.24 l 2.52,-0.44 z m 9.96,-10.18 v 10.39 l 7.79,1.65 V 96.39 Z m 3.29,9.72 -2.18,-0.45 V 99 l 2.18,-0.38 z m 3.39,0.6 -2.5,-0.41 v -9.24 l 2.52,-0.43 z m -32.2,4.28 v 10.51 l 7.78,1.67 v -13.69 z m 3.28,9.73 -2.18,-0.46 v -8.08 l 2.18,-0.38 z m 3.4,0.63 -2.52,-0.41 v -9.27 l 2.52,-0.44 z m 9.95,-10.23 v 10.51 l 7.78,1.65 v -13.48 z m 3.29,9.73 -2.19,-0.46 v -8.08 l 2.19,-0.38 z m 3.39,0.6 -2.52,-0.41 v -9.24 l 2.52,-0.43 z"
   class="st5"
   id="path73"
   inkscape:connector-curvature="0"
   style="fill:#341a6e;stroke:none;stroke-width:34;stroke-linecap:butt" />
				</g>
			</g>
		</g>
	</g>
</svg>

<?xml version="1.0" encoding="UTF-8" standalone="no"?>
<!DOCTYPE svg PUBLIC "-//W3C//DTD SVG 1.1//EN" "http://www.w3.org/Graphics/SVG/1.1/DTD/svg11.dtd">
<!-- Generated by Microsoft Visio, SVG Export Azure Arc Kubernetes.svg Page-1 -->
<svg xmlns="http://www.w3.org/2000/svg" xmlns:xlink="http://www.w3.org/1999/xlink" xmlns:ev="http://www.w3.org/2001/xml-events"
		width="1.72914in" height="1.73206in" viewBox="0 0 124.498 124.709" xml:space="preserve" color-interpolation-filters="sRGB"
		class="st6">
	<style type="text/css">
	<![CDATA[
		.st1 {fill:#5ea0ef;stroke:none;stroke-linecap:butt;stroke-width:34}
		.st2 {fill:#50e6ff;stroke:none;stroke-linecap:butt;stroke-width:34}
		.st3 {fill:url(#grad0-10);stroke:none;stroke-linecap:butt;stroke-width:34}
		.st4 {fill:none;stroke:none;stroke-linecap:butt;stroke-width:34}
		.st5 {fill:#341a6e;stroke:none;stroke-linecap:butt;stroke-width:34}
		.st6 {fill:none;fill-rule:evenodd;font-size:12px;overflow:visible;stroke-linecap:square;stroke-miterlimit:3}
	]]>
	</style>

	<defs id="Patterns_And_Gradients">
		<linearGradient id="grad0-10" x1="0" y1="0" x2="1" y2="0" gradientTransform="rotate(0 0.5 0.5)">
			<stop offset="0" stop-color="#b77af4" stop-opacity="1"/>
			<stop offset="1" stop-color="#773adc" stop-opacity="1"/>
		</linearGradient>
	</defs>
	<g>
		<title>Page-1</title>
		<g id="group8412-1" transform="translate(33.9022,-34.0157)">
			<title>Azure Arc Kubernetes</title>
			<g id="group8413-2">
				<title>Sheet.8413</title>
				<g id="shape8414-3" transform="translate(0.0803417,-2.70006E-13)">
					<title>Sheet.8414</title>
					<path d="M56.42 115.46 C55.9 117.77 53.01 120.05 47.8 121.82 A71.1282 71.1812 0 0 1 7.87 121.87 C3.07 120.17
								 0.48 118.02 0.07 115.8 C0 115.41 0.07 109.32 0.07 109.32 L56.52 108.8 C56.52 108.8 56.49 115.18
								 56.42 115.46 Z" class="st1"/>
				</g>
				<g id="shape8415-5" transform="translate(-1.05543,-5.45232) rotate(-0.575)">
					<title>Sheet.8415</title>
					<ellipse cx="28.2499" cy="114.935" rx="28.2499" ry="9.77325" class="st2"/>
				</g>
				<g id="shape8416-7" transform="translate(12.2131,-43.1118)">
					<title>Sheet.8416</title>
					<path d="M7.7 111.13 L0 112.55 L0 123.06 L7.7 124.71 L15.43 121.61 L15.43 113.77 L7.7 111.13 Z" class="st3"/>
				</g>
				<g id="shape8417-11" transform="translate(12.3736,-43.2489)">
					<title>Sheet.8417</title>
					<path d="M7.84 124.68 L14.89 121.84 a0.544477 0.544883 -180 0 0 0.314727 -0.377953 L15.2 114.34 a0.569655 0.57008
								 -180 0 0 -0.339905 -0.48504 L7.73 111.43 L7.41 111.43 L0.41 112.71 a0.535035 0.535434 -180 0 0 -0.405998
								 0.48504 L0 122.71 a0.516152 0.516536 -180 0 0 0.405998 0.513387 L7.49 124.7 a0.821437 0.822049 -180
								 0 0 0.349347 -0.0220473 Z" class="st4"/>
				</g>
				<g id="shape8418-13" transform="translate(28.881,-42.9764)">
					<title>Sheet.8418</title>
					<path d="M7.7 111.13 L0 112.55 L0 123.06 L7.7 124.71 L15.4 121.58 L15.4 113.77 L7.7 111.13 Z" class="st3"/>
				</g>
				<g id="shape8419-16" transform="translate(4.32286,-28.6141)">
					<title>Sheet.8419</title>
					<path d="M7.7 111.13 L0 112.55 L0 123.06 L7.7 124.71 L15.43 121.61 L15.43 113.77 L7.7 111.13 Z" class="st3"/>
				</g>
				<g id="shape8420-19" transform="translate(20.9373,-28.696)">
					<title>Sheet.8420</title>
					<path d="M7.7 111.1 L0 112.53 L0 123.04 L7.7 124.71 L15.4 121.58 L15.4 113.74 L7.7 111.1 Z" class="st3"/>
				</g>
				<g id="shape8421-22" transform="translate(37.5486,-28.5889)">
					<title>Sheet.8421</title>
					<path d="M7.7 111.13 L0 112.56 L0 123.06 L7.7 124.71 L15.43 121.61 L15.43 113.77 L7.7 111.13 Z" class="st3"/>
				</g>
				<g id="shape8422-25" transform="translate(12.0242,-13.9558)">
					<title>Sheet.8422</title>
					<path d="M7.7 111.13 L0 112.53 L0 123.04 L7.7 124.71 L15.43 121.58 L15.43 113.77 L7.7 111.13 Z" class="st3"/>
				</g>
				<g id="shape8423-28" transform="translate(12.1753,-14.1449)">
					<title>Sheet.8423</title>
					<path d="M7.85 124.68 L14.87 121.99 a0.490974 0.491339 -180 0 0 0.314727 -0.48504 L15.19 114.49 a0.538183 0.538584
								 -180 0 0 -0.352494 -0.592127 L7.73 111.48 a0.478385 0.478741 -180 0 0 -0.314727 2.84217E-14 L0.43
								 112.74 a0.513005 0.513387 -180 0 0 -0.431176 0.513387 L0 122.79 a0.513005 0.513387 -180 0 0 0.40285
								 0.513387 L7.48 124.68 a0.594834 0.595277 -180 0 0 0.361936 0 Z" class="st4"/>
				</g>
				<g id="shape8424-30" transform="translate(28.6638,-13.8487)">
					<title>Sheet.8424</title>
					<path d="M7.7 111.13 L0 112.55 L0 123.06 L7.7 124.71 L15.43 121.61 L15.43 113.77 L7.7 111.13 Z" class="st3"/>
				</g>
				<g id="shape8425-33" transform="translate(4.29768,-13.8487)">
					<title>Sheet.8425</title>
					<path d="M7.92 83.29 L7.92 93.8 L15.7 95.45 L15.7 81.97 L7.92 83.29 ZM11.2 92.99 L9.02 92.56 L9.02 84.48 L11.2
								 84.13 L11.2 92.99 ZM14.6 93.61 L12.09 93.21 L12.09 83.97 L14.6 83.53 L14.6 93.61 ZM24.58 83.43 L24.58
								 93.94 L32.31 95.58 L32.31 82.11 L24.58 83.43 ZM27.84 93.13 L25.66 92.7 L25.66 84.61 L27.84 84.26
								 L27.84 93.13 ZM31.23 93.76 L28.72 93.35 L28.72 84.1 L31.23 83.64 L31.23 93.76 ZM0 97.8 L0 108.22
								 L7.78 109.86 L7.78 96.39 L0 97.8 ZM3.27 107.52 L1.07 107.06 L1.07 98.98 L3.25 98.6 L3.27 107.52
								 ZM6.69 108.22 L4.17 107.81 L4.17 98.46 L6.69 98.03 L6.69 108.22 ZM16.64 97.68 L16.64 108.22 L24.39
								 109.86 L24.39 96.39 L16.64 97.68 ZM19.9 107.41 L17.72 106.95 L17.72 98.87 L19.9 98.49 L19.9 107.41
								 ZM23.29 108 L20.77 107.6 L20.77 98.36 L23.29 97.92 L23.29 108 ZM33.25 97.82 L33.25 108.21 L41.04
								 109.86 L41.04 96.39 L33.25 97.82 ZM36.54 107.54 L34.36 107.09 L34.36 99 L36.54 98.62 L36.54 107.54
								 ZM39.93 108.14 L37.43 107.73 L37.43 98.49 L39.95 98.06 L39.93 108.14 ZM7.73 112.42 L7.73 122.93
								 L15.51 124.6 L15.51 110.91 L7.73 112.42 ZM11.01 122.15 L8.83 121.69 L8.83 113.61 L11.01 113.23 L11.01
								 122.15 ZM14.41 122.78 L11.89 122.37 L11.89 113.1 L14.41 112.66 L14.41 122.78 ZM24.36 112.55 L24.36
								 123.06 L32.14 124.71 L32.14 111.23 L24.36 112.55 ZM27.65 122.28 L25.46 121.82 L25.46 113.74 L27.65
								 113.36 L27.65 122.28 ZM31.04 122.88 L28.52 122.47 L28.52 113.23 L31.04 112.8 L31.04 122.88 Z"
							class="st5"/>
				</g>
			</g>
		</g>
	</g>
</svg>
